src/icons/linkedin-icon.svg

<svg width="45" height="45" viewBox="0 0 45 45" fill="none" xmlns="http://www.w3.org/2000/svg">
<circle cx="22.5" cy="22.5" r="22.5" fill="#9D74D3"/>
<path d="M17.1717 19.7461H13.5737C13.4141 19.7461 13.2847 19.8755 13.2847 20.0352V31.5938C13.2847 31.7535 13.4141 31.8829 13.5737 31.8829H17.1717C17.3314 31.8829 17.4608 31.7535 17.4608 31.5938V20.0352C17.4608 19.8755 17.3314 19.7461 17.1717 19.7461Z" fill="white"/>
<path d="M15.3742 14C14.0651 14 13 15.0639 13 16.3716C13 17.6799 14.0651 18.7442 15.3742 18.7442C16.6823 18.7442 17.7465 17.6798 17.7465 16.3716C17.7465 15.0639 16.6823 14 15.3742 14Z" fill="white"/>
<path d="M27.354 19.5762C25.9089 19.5762 24.8407 20.1974 24.1928 20.9032V20.1525C24.1928 19.9929 24.0634 19.8635 23.9037 19.8635H20.458C20.2983 19.8635 20.1689 19.9929 20.1689 20.1525V31.7112C20.1689 31.8709 20.2983 32.0003 20.458 32.0003H24.0481C24.2078 32.0003 24.3372 31.8709 24.3372 31.7112V25.9923C24.3372 24.0652 24.8606 23.3144 26.204 23.3144C27.667 23.3144 27.7833 24.518 27.7833 26.0915V31.7112C27.7833 31.8709 27.9127 32.0003 28.0724 32.0003H31.6638C31.8235 32.0003 31.9529 31.8709 31.9529 31.7112V25.3711C31.9529 22.5056 31.4065 19.5762 27.354 19.5762Z" fill="white"/>
</svg>

<svg xmlns="http://www.w3.org/2000/svg" width="45" height="45" fill="none"><circle cx="22.5" cy="22.5" r="22.5" fill="#9d74d3"/><path d="M17.172 19.746h-3.598a.29.29 0 0 0-.289.289v11.559a.29.29 0 0 0 .289.289h3.598a.29.29 0 0 0 .289-.289V20.035a.29.29 0 0 0-.289-.289zM15.374 14C14.065 14 13 15.064 13 16.372s1.065 2.373 2.374 2.373 2.372-1.064 2.372-2.373S16.682 14 15.374 14zm11.98 5.576c-1.445 0-2.513.621-3.161 1.327v-.751a.29.29 0 0 0-.289-.289h-3.446a.29.29 0 0 0-.289.289v11.559a.29.29 0 0 0 .289.289h3.59a.29.29 0 0 0 .289-.289v-5.719c0-1.927.523-2.678 1.867-2.678 1.463 0 1.579 1.204 1.579 2.777v5.62a.29.29 0 0 0 .289.289h3.591a.29.29 0 0 0 .289-.289v-6.34c0-2.865-.546-5.795-4.599-5.795z" fill="#fff"/></svg>
